germany/municipalities/07131042.svg

<?xml version="1.0" encoding="UTF-8" standalone="no"?>
<!-- Created with Inkscape (http://www.inkscape.org/) -->

<svg
   xmlns:dc="http://purl.org/dc/elements/1.1/"
   xmlns:cc="http://creativecommons.org/ns#"
   xmlns:rdf="http://www.w3.org/1999/02/22-rdf-syntax-ns#"
   xmlns:svg="http://www.w3.org/2000/svg"
   xmlns="http://www.w3.org/2000/svg"
   xmlns:sodipodi="http://sodipodi.sourceforge.net/DTD/sodipodi-0.dtd"
   xmlns:inkscape="http://www.inkscape.org/namespaces/inkscape"
   width="197.93207mm"
   height="209.34358mm"
   viewBox="0 0 701.3341 741.76859"
   id="svg4175"
   version="1.1"
   inkscape:version="0.91 r13725"
   sodipodi:docname="DEU Kottenborn COA.svg">
  <defs
     id="defs4177">
    <inkscape:path-effect
       effect="spiro"
       id="path-effect5032"
       is_visible="true" />
    <inkscape:path-effect
       effect="spiro"
       id="path-effect5009"
       is_visible="true" />
    <inkscape:path-effect
       effect="spiro"
       id="path-effect4902"
       is_visible="true" />
    <inkscape:path-effect
       effect="spiro"
       id="path-effect4902-3"
       is_visible="true" />
    <inkscape:path-effect
       effect="spiro"
       id="path-effect5009-8"
       is_visible="true" />
    <inkscape:path-effect
       effect="spiro"
       id="path-effect5032-4"
       is_visible="true" />
  </defs>
  <sodipodi:namedview
     id="base"
     pagecolor="#ffffff"
     bordercolor="#666666"
     borderopacity="1.0"
     inkscape:pageopacity="0.0"
     inkscape:pageshadow="2"
     inkscape:zoom="0.72798985"
     inkscape:cx="350.66704"
     inkscape:cy="370.88431"
     inkscape:document-units="px"
     inkscape:current-layer="layer1"
     showgrid="false"
     inkscape:window-width="1366"
     inkscape:window-height="745"
     inkscape:window-x="-8"
     inkscape:window-y="-8"
     inkscape:window-maximized="1"
     fit-margin-top="0"
     fit-margin-left="0"
     fit-margin-right="0"
     fit-margin-bottom="0"
     inkscape:snap-midpoints="true"
     inkscape:snap-smooth-nodes="true"
     inkscape:object-nodes="true"
     inkscape:snap-nodes="false" />
  <metadata
     id="metadata4180">
    <rdf:RDF>
      <cc:Work
         rdf:about="">
        <dc:format>image/svg+xml</dc:format>
        <dc:type
           rdf:resource="http://purl.org/dc/dcmitype/StillImage" />
        <dc:title></dc:title>
      </cc:Work>
    </rdf:RDF>
  </metadata>
  <g
     inkscape:label="Ebene 1"
     inkscape:groupmode="layer"
     id="layer1"
     transform="translate(-19.589285,-25.451709)">
    <path
       style="fill:#ffffff;fill-rule:evenodd;stroke:none;stroke-width:11;stroke-opacity:1"
       inkscape:connector-curvature="0"
       d="m 25.269005,30.951712 13.398,416.624408 c 7.415,175.24977 153.919795,314.04607 331.589245,314.14417 177.50972,-0.2149 324.0694,-139.0612 331.58942,-314.14417 l 13.39798,-416.624408 -344.9794,0 z"
       id="path10563-0-67" />
    <path
       style="opacity:1;fill:#0033ff;fill-opacity:1;fill-rule:nonzero;stroke:#000000;stroke-width:11;stroke-linecap:round;stroke-linejoin:round;stroke-miterlimit:4;stroke-dasharray:none;stroke-dashoffset:0;stroke-opacity:1"
       d="M 5.6796875 5.5 L 19.078125 422.125 C 19.850209 440.37283 22.150151 458.21665 25.816406 475.55859 L 675.47656 475.55859 C 679.15805 458.21539 681.47216 440.37121 682.25586 422.125 L 695.6543 5.5 L 350.67578 5.5 L 5.6796875 5.5 z "
       id="rect4806"
       transform="translate(19.589285,25.451709)" />
    <g
       id="g5115"
       transform="translate(-3.7229137,0)">
      <g
         id="g5071-6"
         transform="translate(235.79246,0)">
        <ellipse
           style="opacity:1;fill:#ffd700;fill-opacity:1;fill-rule:nonzero;stroke:#000000;stroke-width:5;stroke-linecap:round;stroke-linejoin:round;stroke-miterlimit:4;stroke-dasharray:none;stroke-dashoffset:0;stroke-opacity:1"
           id="path5036-6"
           cx="256.08301"
           cy="350.66019"
           rx="11.196981"
           ry="21.907137" />
        <path
           inkscape:connector-curvature="0"
           style="opacity:1;fill:#ffd700;fill-opacity:1;fill-rule:nonzero;stroke:#000000;stroke-width:5;stroke-linecap:round;stroke-linejoin:round;stroke-miterlimit:4;stroke-dasharray:none;stroke-dashoffset:0;stroke-opacity:1"
           d="m 256.08396,164.20952 a 26.594265,26.594265 0 0 0 -26.5957,26.59571 26.594265,26.594265 0 0 0 26.5957,26.59375 26.594265,26.594265 0 0 0 26.59375,-26.59375 26.594265,26.594265 0 0 0 -26.59375,-26.59571 z m 0,12.55469 a 14.039437,14.039437 0 0 1 14.03906,14.04102 14.039437,14.039437 0 0 1 -14.03906,14.03906 14.039437,14.039437 0 0 1 -14.04101,-14.03906 14.039437,14.039437 0 0 1 14.04101,-14.04102 z"
           id="path4978-4" />
        <path
           inkscape:connector-curvature="0"
           style="opacity:1;fill:#ffffff;fill-opacity:1;fill-rule:nonzero;stroke:#000000;stroke-width:5;stroke-linecap:round;stroke-linejoin:round;stroke-miterlimit:4;stroke-dasharray:none;stroke-dashoffset:0;stroke-opacity:1"
           d="m 248.54979,126.00444 0,57.95118 15.06641,0 0,-57.95118 -15.06641,0 z"
           id="path4976-3" />
        <path
           style="fill:#ffd700;fill-opacity:1;fill-rule:evenodd;stroke:#000000;stroke-width:5;stroke-linecap:butt;stroke-linejoin:round;stroke-miterlimit:4;stroke-dasharray:none;stroke-opacity:1"
           d="m 244.72459,218.08062 c -5.88645,1.6885 -11.59309,5.08846 -15.57813,9.73828 -2.68044,3.12759 -4.22983,7.24383 -4.86914,11.35742 0.22939,4.21499 0.43584,8.46137 0,12.6582 -1.14185,10.99512 -2.58088,22.24364 -6.81445,32.45508 -5.14841,12.41804 -12.46183,24.2116 -22.07031,33.75391 l 60.6914,20.77148 60.68946,-20.77148 c -9.60849,-9.5423 -16.91998,-21.33624 -22.06836,-33.75391 -4.23371,-10.21152 -5.67423,-21.45986 -6.81641,-32.45508 -0.43596,-4.19682 -0.22939,-8.4432 0,-12.6582 -0.63931,-4.11359 -2.18714,-8.22983 -4.86719,-11.35742 -3.9847,-4.65011 -9.69167,-8.04978 -15.57812,-9.73828 -7.27936,-2.08805 -15.43939,-2.08805 -22.71875,0 z"
           id="path5007-3"
           inkscape:connector-curvature="0"
           sodipodi:nodetypes="aacaacccaacaaa" />
        <path
           style="fill:#ffd700;fill-opacity:1;fill-rule:evenodd;stroke:#000000;stroke-width:5;stroke-linecap:butt;stroke-linejoin:miter;stroke-miterlimit:4;stroke-dasharray:none;stroke-opacity:1"
           d="m 224.27733,239.17632 63.61133,0"
           id="path5030-8"
           inkscape:path-effect="#path-effect5032-4"
           inkscape:original-d="m 224.27733,239.17632 63.61133,0"
           inkscape:connector-curvature="0" />
        <rect
           style="opacity:1;fill:#ffd700;fill-opacity:1;fill-rule:nonzero;stroke:#000000;stroke-width:5.00000048;stroke-linecap:round;stroke-linejoin:round;stroke-miterlimit:4;stroke-dasharray:none;stroke-dashoffset:0;stroke-opacity:1"
           id="rect5034-8"
           width="121.38085"
           height="20.770567"
           x="195.39256"
           y="318.04352" />
      </g>
      <g
         id="g5071">
        <ellipse
           style="opacity:1;fill:#ffd700;fill-opacity:1;fill-rule:nonzero;stroke:#000000;stroke-width:5;stroke-linecap:round;stroke-linejoin:round;stroke-miterlimit:4;stroke-dasharray:none;stroke-dashoffset:0;stroke-opacity:1"
           id="path5036"
           cx="256.08301"
           cy="350.66019"
           rx="11.196981"
           ry="21.907137" />
        <path
           inkscape:connector-curvature="0"
           style="opacity:1;fill:#ffd700;fill-opacity:1;fill-rule:nonzero;stroke:#000000;stroke-width:5;stroke-linecap:round;stroke-linejoin:round;stroke-miterlimit:4;stroke-dasharray:none;stroke-dashoffset:0;stroke-opacity:1"
           d="m 256.08396,164.20952 a 26.594265,26.594265 0 0 0 -26.5957,26.59571 26.594265,26.594265 0 0 0 26.5957,26.59375 26.594265,26.594265 0 0 0 26.59375,-26.59375 26.594265,26.594265 0 0 0 -26.59375,-26.59571 z m 0,12.55469 a 14.039437,14.039437 0 0 1 14.03906,14.04102 14.039437,14.039437 0 0 1 -14.03906,14.03906 14.039437,14.039437 0 0 1 -14.04101,-14.03906 14.039437,14.039437 0 0 1 14.04101,-14.04102 z"
           id="path4978" />
        <path
           inkscape:connector-curvature="0"
           style="opacity:1;fill:#ffffff;fill-opacity:1;fill-rule:nonzero;stroke:#000000;stroke-width:5;stroke-linecap:round;stroke-linejoin:round;stroke-miterlimit:4;stroke-dasharray:none;stroke-dashoffset:0;stroke-opacity:1"
           d="m 248.54979,126.00444 0,57.95118 15.06641,0 0,-57.95118 -15.06641,0 z"
           id="path4976" />
        <path
           style="fill:#ffd700;fill-opacity:1;fill-rule:evenodd;stroke:#000000;stroke-width:5;stroke-linecap:butt;stroke-linejoin:round;stroke-miterlimit:4;stroke-dasharray:none;stroke-opacity:1"
           d="m 244.72459,218.08062 c -5.88645,1.6885 -11.59309,5.08846 -15.57813,9.73828 -2.68044,3.12759 -4.22983,7.24383 -4.86914,11.35742 0.22939,4.21499 0.43584,8.46137 0,12.6582 -1.14185,10.99512 -2.58088,22.24364 -6.81445,32.45508 -5.14841,12.41804 -12.46183,24.2116 -22.07031,33.75391 l 60.6914,20.77148 60.68946,-20.77148 c -9.60849,-9.5423 -16.91998,-21.33624 -22.06836,-33.75391 -4.23371,-10.21152 -5.67423,-21.45986 -6.81641,-32.45508 -0.43596,-4.19682 -0.22939,-8.4432 0,-12.6582 -0.63931,-4.11359 -2.18714,-8.22983 -4.86719,-11.35742 -3.9847,-4.65011 -9.69167,-8.04978 -15.57812,-9.73828 -7.27936,-2.08805 -15.43939,-2.08805 -22.71875,0 z"
           id="path5007"
           inkscape:connector-curvature="0"
           sodipodi:nodetypes="aacaacccaacaaa" />
        <path
           style="fill:#ffd700;fill-opacity:1;fill-rule:evenodd;stroke:#000000;stroke-width:5;stroke-linecap:butt;stroke-linejoin:miter;stroke-miterlimit:4;stroke-dasharray:none;stroke-opacity:1"
           d="m 224.27733,239.17632 63.61133,0"
           id="path5030"
           inkscape:path-effect="#path-effect5032"
           inkscape:original-d="m 224.27733,239.17632 63.61133,0"
           inkscape:connector-curvature="0" />
        <rect
           style="opacity:1;fill:#ffd700;fill-opacity:1;fill-rule:nonzero;stroke:#000000;stroke-width:5.00000048;stroke-linecap:round;stroke-linejoin:round;stroke-miterlimit:4;stroke-dasharray:none;stroke-dashoffset:0;stroke-opacity:1"
           id="rect5034"
           width="121.38085"
           height="20.770567"
           x="195.39256"
           y="318.04352" />
      </g>
    </g>
    <path
       style="fill:none;fill-rule:evenodd;stroke:#000000;stroke-width:11;stroke-opacity:1"
       inkscape:connector-curvature="0"
       d="M 25.269,30.951709 38.667,447.57612 c 7.415,175.24977 153.9198,314.04607 331.58926,314.14417 177.5097,-0.2149 324.0694,-139.0612 331.5894,-314.14417 l 13.398,-416.624411 -344.9794,0 z"
       id="path10563-0" />
    <path
       style="fill:#ff0000;fill-rule:evenodd;stroke:#000000;stroke-width:8;stroke-linecap:butt;stroke-linejoin:round;stroke-miterlimit:4;stroke-dasharray:none;stroke-opacity:1;fill-opacity:1"
       d="M 329.87077,515.2388 364.92526,625.11283 255.05123,590.05835 299.68789,630.4439 255.05123,670.82945 364.92526,635.77497 329.87077,745.649 370.25633,701.01233 410.64188,745.649 375.5874,635.77497 485.46143,670.82945 440.82477,630.4439 485.46143,590.05835 375.5874,625.11283 410.64188,515.2388 370.25633,559.87546 329.87077,515.2388 Z"
       id="path4833"
       inkscape:connector-curvature="0" />
    <path
       style="opacity:1;fill:#ffffff;fill-opacity:1;fill-rule:nonzero;stroke:#000000;stroke-width:8;stroke-linecap:round;stroke-linejoin:round;stroke-miterlimit:4;stroke-dasharray:none;stroke-dashoffset:0;stroke-opacity:1"
       d="m 168.89202,43.543506 c 4.67829,15.185486 7.64559,30.812783 9.18164,46.5 1.31245,13.403704 1.3124,26.969334 0,40.373044 -1.53605,15.68779 -4.50335,31.31647 -9.18164,46.50196 5.87484,-6.9026 12.92447,-13.1462 21.11328,-17.59571 13.63676,-7.40975 29.41912,-11.40019 44.98047,-14.24414 9.7669,-1.78496 19.85605,-1.89505 29.82617,-1.66992 l 1.87891,0 67.21484,0 0,177.74024 0,48.92773 c 0.24666,9.97012 0.12532,20.05923 -1.83008,29.82617 -3.11545,15.5612 -7.48585,31.34373 -15.60351,44.98047 -4.87468,8.18891 -11.71492,15.23844 -19.27735,21.11328 16.63705,-4.67829 33.75858,-7.64364 50.94532,-9.17969 14.68496,-1.31245 29.54551,-1.3124 44.23047,0 17.18738,1.53605 34.31021,4.5014 50.94726,9.17969 -7.56242,-5.87484 -14.4025,-12.92447 -19.27734,-21.11328 -8.11803,-13.63676 -12.48968,-29.41912 -15.60547,-44.98047 -1.95559,-9.7669 -2.07674,-19.85605 -1.83008,-29.82617 l 0,-48.92773 0.002,0 0,-177.74024 67.2168,0 1.875,0 c 9.97012,-0.22513 20.05928,-0.11504 29.82617,1.66992 15.56136,2.84395 31.34371,6.83439 44.98047,14.24414 8.18881,4.44951 15.24038,10.69311 21.11524,17.59571 -4.67831,-15.18549 -7.64364,-30.81417 -9.17969,-46.50196 -1.3124,-13.40371 -1.31245,-26.96933 0,-40.373044 1.53605,-15.68722 4.50138,-31.31451 9.17969,-46.5 -5.87486,6.90262 -12.92633,13.146333 -21.11524,17.595703 -13.63674,7.40941 -29.41927,11.398548 -44.98047,14.242188 -9.76693,1.78479 -19.85605,1.895061 -29.82617,1.669921 l -1.875,0 -207.13281,0 -1.87891,0 c -9.97012,0.22514 -20.05924,0.114869 -29.82617,-1.669921 C 219.42457,72.537765 203.64204,68.548613 190.0053,61.139209 181.81639,56.68984 174.76686,50.446123 168.89202,43.543506 Z"
       id="rect4883"
       inkscape:connector-curvature="0" />
  </g>
</svg>

<svg xmlns="http://www.w3.org/2000/svg" width="748.09" height="791.22" viewBox="0 0 701.334 741.769"><path style="fill:#fff;fill-rule:evenodd;stroke:none;stroke-width:11;stroke-opacity:1" d="m25.269 30.952 13.398 416.624c7.415 175.25 153.92 314.046 331.59 314.144 177.509-.215 324.069-139.06 331.589-314.144l13.398-416.624h-344.98z" transform="translate(-19.59 -25.452)"/><path style="opacity:1;fill:#03f;fill-opacity:1;fill-rule:nonzero;stroke:#000;stroke-width:11;stroke-linecap:round;stroke-linejoin:round;stroke-miterlimit:4;stroke-dasharray:none;stroke-dashoffset:0;stroke-opacity:1" d="m5.68 5.5 13.398 416.625a324.47 324.47 0 0 0 6.738 53.434h649.66a324.139 324.139 0 0 0 6.78-53.434L695.654 5.5H5.68z"/><g transform="translate(212.48 -25.452)"><ellipse style="opacity:1;fill:gold;fill-opacity:1;fill-rule:nonzero;stroke:#000;stroke-width:5;stroke-linecap:round;stroke-linejoin:round;stroke-miterlimit:4;stroke-dasharray:none;stroke-dashoffset:0;stroke-opacity:1" cx="256.083" cy="350.66" rx="11.197" ry="21.907"/><path style="opacity:1;fill:gold;fill-opacity:1;fill-rule:nonzero;stroke:#000;stroke-width:5;stroke-linecap:round;stroke-linejoin:round;stroke-miterlimit:4;stroke-dasharray:none;stroke-dashoffset:0;stroke-opacity:1" d="M256.084 164.21a26.594 26.594 0 0 0-26.596 26.595 26.594 26.594 0 0 0 26.596 26.594 26.594 26.594 0 0 0 26.594-26.594 26.594 26.594 0 0 0-26.594-26.595zm0 12.554a14.04 14.04 0 0 1 14.039 14.041 14.04 14.04 0 0 1-14.039 14.04 14.04 14.04 0 0 1-14.041-14.04 14.04 14.04 0 0 1 14.041-14.04z"/><path style="opacity:1;fill:#fff;fill-opacity:1;fill-rule:nonzero;stroke:#000;stroke-width:5;stroke-linecap:round;stroke-linejoin:round;stroke-miterlimit:4;stroke-dasharray:none;stroke-dashoffset:0;stroke-opacity:1" d="M248.55 126.004v57.952h15.066v-57.952H248.55z"/><path style="fill:gold;fill-opacity:1;fill-rule:evenodd;stroke:#000;stroke-width:5;stroke-linecap:butt;stroke-linejoin:round;stroke-miterlimit:4;stroke-dasharray:none;stroke-opacity:1" d="M244.725 218.08c-5.887 1.69-11.593 5.09-15.579 9.739-2.68 3.127-4.23 7.244-4.869 11.357.23 4.215.436 8.462 0 12.659-1.142 10.995-2.58 22.243-6.814 32.455-5.149 12.418-12.462 24.211-22.07 33.754l60.691 20.771 60.69-20.771c-9.61-9.543-16.92-21.337-22.069-33.754-4.234-10.212-5.674-21.46-6.816-32.455-.436-4.197-.23-8.444 0-12.659-.64-4.113-2.187-8.23-4.868-11.357-3.984-4.65-9.691-8.05-15.578-9.738-7.279-2.088-15.439-2.088-22.718 0z"/><path style="fill:gold;fill-opacity:1;fill-rule:evenodd;stroke:#000;stroke-width:5;stroke-linecap:butt;stroke-linejoin:miter;stroke-miterlimit:4;stroke-dasharray:none;stroke-opacity:1" d="M224.277 239.176h63.612"/><path style="opacity:1;fill:gold;fill-opacity:1;fill-rule:nonzero;stroke:#000;stroke-width:5.00000048;stroke-linecap:round;stroke-linejoin:round;stroke-miterlimit:4;stroke-dasharray:none;stroke-dashoffset:0;stroke-opacity:1" d="M195.393 318.044h121.381v20.771H195.393z"/></g><g transform="translate(-23.312 -25.452)"><ellipse style="opacity:1;fill:gold;fill-opacity:1;fill-rule:nonzero;stroke:#000;stroke-width:5;stroke-linecap:round;stroke-linejoin:round;stroke-miterlimit:4;stroke-dasharray:none;stroke-dashoffset:0;stroke-opacity:1" cx="256.083" cy="350.66" rx="11.197" ry="21.907"/><path style="opacity:1;fill:gold;fill-opacity:1;fill-rule:nonzero;stroke:#000;stroke-width:5;stroke-linecap:round;stroke-linejoin:round;stroke-miterlimit:4;stroke-dasharray:none;stroke-dashoffset:0;stroke-opacity:1" d="M256.084 164.21a26.594 26.594 0 0 0-26.596 26.595 26.594 26.594 0 0 0 26.596 26.594 26.594 26.594 0 0 0 26.594-26.594 26.594 26.594 0 0 0-26.594-26.595zm0 12.554a14.04 14.04 0 0 1 14.039 14.041 14.04 14.04 0 0 1-14.039 14.04 14.04 14.04 0 0 1-14.041-14.04 14.04 14.04 0 0 1 14.041-14.04z"/><path style="opacity:1;fill:#fff;fill-opacity:1;fill-rule:nonzero;stroke:#000;stroke-width:5;stroke-linecap:round;stroke-linejoin:round;stroke-miterlimit:4;stroke-dasharray:none;stroke-dashoffset:0;stroke-opacity:1" d="M248.55 126.004v57.952h15.066v-57.952H248.55z"/><path style="fill:gold;fill-opacity:1;fill-rule:evenodd;stroke:#000;stroke-width:5;stroke-linecap:butt;stroke-linejoin:round;stroke-miterlimit:4;stroke-dasharray:none;stroke-opacity:1" d="M244.725 218.08c-5.887 1.69-11.593 5.09-15.579 9.739-2.68 3.127-4.23 7.244-4.869 11.357.23 4.215.436 8.462 0 12.659-1.142 10.995-2.58 22.243-6.814 32.455-5.149 12.418-12.462 24.211-22.07 33.754l60.691 20.771 60.69-20.771c-9.61-9.543-16.92-21.337-22.069-33.754-4.234-10.212-5.674-21.46-6.816-32.455-.436-4.197-.23-8.444 0-12.659-.64-4.113-2.187-8.23-4.868-11.357-3.984-4.65-9.691-8.05-15.578-9.738-7.279-2.088-15.439-2.088-22.718 0z"/><path style="fill:gold;fill-opacity:1;fill-rule:evenodd;stroke:#000;stroke-width:5;stroke-linecap:butt;stroke-linejoin:miter;stroke-miterlimit:4;stroke-dasharray:none;stroke-opacity:1" d="M224.277 239.176h63.612"/><path style="opacity:1;fill:gold;fill-opacity:1;fill-rule:nonzero;stroke:#000;stroke-width:5.00000048;stroke-linecap:round;stroke-linejoin:round;stroke-miterlimit:4;stroke-dasharray:none;stroke-dashoffset:0;stroke-opacity:1" d="M195.393 318.044h121.381v20.771H195.393z"/></g><path style="fill:none;fill-rule:evenodd;stroke:#000;stroke-width:11;stroke-opacity:1" d="m25.269 30.952 13.398 416.624c7.415 175.25 153.92 314.046 331.59 314.144 177.509-.215 324.069-139.06 331.589-314.144l13.398-416.624h-344.98z" transform="translate(-19.59 -25.452)"/><path style="fill:red;fill-rule:evenodd;stroke:#000;stroke-width:8;stroke-linecap:butt;stroke-linejoin:round;stroke-miterlimit:4;stroke-dasharray:none;stroke-opacity:1;fill-opacity:1" d="m329.87 515.239 35.055 109.874-109.874-35.055 44.637 40.386-44.637 40.385 109.874-35.054-35.054 109.874 40.385-44.637 40.386 44.637-35.055-109.874 109.874 35.054-44.636-40.385 44.636-40.386-109.874 35.055 35.055-109.874-40.386 44.636-40.385-44.636z" transform="translate(-19.59 -25.452)"/><path style="opacity:1;fill:#fff;fill-opacity:1;fill-rule:nonzero;stroke:#000;stroke-width:8;stroke-linecap:round;stroke-linejoin:round;stroke-miterlimit:4;stroke-dasharray:none;stroke-dashoffset:0;stroke-opacity:1" d="M168.892 43.544c4.678 15.185 7.646 30.812 9.182 46.5a207.486 207.486 0 0 1 0 40.373c-1.536 15.687-4.504 31.316-9.182 46.502 5.875-6.903 12.924-13.147 21.113-17.596 13.637-7.41 29.42-11.4 44.98-14.244 9.768-1.785 19.857-1.895 29.827-1.67H333.906v226.668c.246 9.97.125 20.059-1.83 29.826-3.116 15.561-7.486 31.344-15.604 44.98-4.875 8.19-11.715 15.239-19.277 21.114 16.637-4.679 33.758-7.644 50.945-9.18a248.93 248.93 0 0 1 44.23 0c17.188 1.536 34.31 4.501 50.948 9.18-7.563-5.875-14.403-12.925-19.278-21.114-8.118-13.636-12.49-29.419-15.605-44.98-1.956-9.767-2.077-19.856-1.83-29.826v-48.928h.002v-177.74h69.092c9.97-.225 20.059-.115 29.826 1.67 15.561 2.844 31.344 6.834 44.98 14.244 8.19 4.45 15.24 10.693 21.116 17.596-4.679-15.186-7.644-30.815-9.18-46.502a207.486 207.486 0 0 1 0-40.373c1.536-15.688 4.501-31.315 9.18-46.5-5.875 6.902-12.927 13.146-21.116 17.595-13.636 7.41-29.419 11.399-44.98 14.242-9.767 1.785-19.856 1.895-29.826 1.67H264.812c-9.97.225-20.06.115-29.826-1.67-15.561-2.843-31.344-6.832-44.98-14.242-8.19-4.45-15.24-10.693-21.114-17.595z" transform="translate(-19.59 -25.452)"/></svg>
